X: 285
T: Jiemei taqing
%%abc-version 2.0
%%abcx-abcm2ps-target-version 5.9.1 (29 Sep 2008)
%%abc-creator hum2abc beta
%%abcx-conversion-date 2013/10/02 07:52:29
%%abc-edited-by Helmut Schaffrath
%%humdrum-veritas 1557991537
%%humdrum-veritas-data 2813085097
%%continueall 1
%%barnumbers 0
L: 1/8
M: 2/4
K: G
AA2B [I:setbarnb 1]| 
d4 | 
e> d B A | 
G E d B | 
A4 | 
A2d2 | 
e d B d | 
A BG2 | 
B2A G | 
A2E2 | 
D4 | 
G> A E G | 
A d A G | 
E D A, B, | 
D3E | 
D2z2 |]  



